imgs/trustpilot-star.svg

<svg width="23" height="22" viewBox="0 0 23 22" fill="none" xmlns="http://www.w3.org/2000/svg">
<path d="M11.5031 16.7772L16.493 15.4965L18.5801 22L11.5031 16.7772ZM23 8.37143H14.2066L11.5031 0L8.79957 8.37143H0L7.11721 13.5598L4.41369 21.9313L11.5309 16.746L15.9106 13.563L22.9938 8.37455L23 8.37143Z" fill="#00B67A"/>
</svg>

<svg width="23" height="22" fill="none" xmlns="http://www.w3.org/2000/svg"><path d="M11.503 16.777l4.99-1.28L18.58 22l-7.077-5.223zM23 8.371h-8.793L11.503 0 8.8 8.371H0l7.117 5.189-2.703 8.371 7.117-5.185 4.38-3.183 7.083-5.188L23 8.37z" fill="#00B67A"/></svg>
